!! 00000] TT[WS
!!!OTL: Gua yiegui
!!!ARE: Asia, China,ÿShanxi Linxian
!! Ethnic Group: Han
!! WI, 223
!!!SCT: J0267
!!!YEM: Copyright 1995, estate of Helmut Schaffrath.
**kern
*ICvox
*Ivox
*M2/4
*k[f#c#]
*D:
{8a
8dd
8dd
16dd
16f#
=1
8a
16b
16a
8f#
8e
=2
8.dd
16ee
16aa
16bb
16aa
16ff#
=3
4.ee
16ff#
16ee}
=4
{8.dd
16ee
8aa
16ff#
16ee
=5
8dd
16ee
16dd
8b
8a
=6
8.a
16b
8dd
16ee
16dd
=7
2a}
==
!!!AGN: Xiaodiao. Qingge
!!!ONB: ESAC (Essen Associative Code) Database: CHINA
!!!AMT: simple duple
!!!AIN: vox
!!!EED: Helmut Schaffrath
!!!EEV: 1.0
*-
